cssgg/arrow-long-down-l.svg

<svg
  width="24"
  height="24"
  viewBox="0 0 24 24"
  fill="none"
  xmlns="http://www.w3.org/2000/svg"
>
  <path
    d="M8.99801 0.972107V2.97211H11.9983L10.998 2.97299L11.0124 19.2135L9.16751 17.379L7.75726 18.7972L12.0118 23.0279L16.2427 18.7734L14.8246 17.3632L13.0124 19.1856L12.998 2.97211H14.998V0.972107H8.99801Z"
    fill="currentColor"
  />
</svg>

<svg viewBox="0 0 24 24" xmlns="http://www.w3.org/2000/svg"><path d="M8.99.97v2h3l-1.01 0 .01 16.24 -1.85-1.84 -1.42 1.41 4.25 4.23 4.23-4.26 -1.42-1.42 -1.82 1.82 -.02-16.22h2V.92h-6Z"/></svg>
